source/img/timer.svg

<svg xmlns="http://www.w3.org/2000/svg" width="298" height="346" fill="none"><path d="M264.568 102.055l5.355-5.355c7.717-7.717 9.124-18.938 3.126-24.935-5.997-5.997-17.217-4.59-24.934 3.127l-5.386 5.385C221.768 63.292 196.11 51.875 168 48.297v-9.583h7.658c10.914 0 19.843-8.711 19.843-19.357C195.501 8.711 186.573 0 175.659 0h-53.317C111.429 0 102.5 8.711 102.5 19.357c0 10.646 8.929 19.357 19.842 19.357H130v9.583C56.681 57.629 0 120.244 0 196.097c0 82.291 66.709 149 149 149 82.29 0 149-66.709 149-149 0-35.663-12.535-68.394-33.432-94.042zM149 306.264c-60.844 0-110.167-49.323-110.167-110.167S88.156 85.93 149 85.93c60.843 0 110.167 49.323 110.167 110.167S209.843 306.264 149 306.264z" fill="#DEDEDE"/><path d="M149 69.048c-69.864 0-126.5 56.636-126.5 126.5s56.636 126.5 126.5 126.5 126.5-56.636 126.5-126.5c0-69.863-56.636-126.5-126.5-126.5zm0 237.216c-60.844 0-110.167-49.323-110.167-110.167S88.156 85.93 149 85.93c60.843 0 110.167 49.323 110.167 110.167S209.843 306.264 149 306.264z" fill="#D22856"/><path d="M144.299 234H84.235v-12.468l21.569-21.514c6.386-6.457 10.559-10.922 12.518-13.396 1.959-2.513 3.37-4.833 4.232-6.959a17.436 17.436 0 001.293-6.611c0-3.402-.96-5.934-2.88-7.597-1.881-1.662-4.408-2.493-7.582-2.493-3.33 0-6.562.753-9.697 2.261-3.134 1.508-6.406 3.654-9.814 6.437L84 160.12c4.231-3.557 7.738-6.07 10.52-7.539 2.782-1.469 5.818-2.59 9.109-3.363 3.292-.812 6.975-1.218 11.049-1.218 5.368 0 10.109.967 14.223 2.9 4.114 1.933 7.307 4.639 9.579 8.118 2.273 3.48 3.409 7.462 3.409 11.946 0 3.905-.705 7.578-2.116 11.018-1.371 3.403-3.526 6.901-6.464 10.497-2.9 3.595-8.032 8.718-15.398 15.367l-11.049 10.265v.811h37.437V234zM215 216.429h-10.344V234h-17.748v-17.571h-36.673v-12.468l37.672-54.743h16.749v53.293H215v13.918zm-28.092-13.918v-14.382c0-2.396.098-5.876.293-10.438.196-4.562.353-7.21.471-7.945h-.471a64.38 64.38 0 01-5.23 9.279l-15.751 23.486h20.688z" fill="#D22856"/></svg>

<svg xmlns="http://www.w3.org/2000/svg" xmlns:xlink="http://www.w3.org/1999/xlink" x="0px" y="0px" width="298" height="346" viewBox="0 0 298 346" enable-background="new 0 0 298 346" xml:space="preserve" fill="none">
<path d="M264.568 102.055L269.923 96.7C277.64 88.983 279.047 77.762 273.049 71.765C267.052 65.768 255.832 67.175 248.115 74.892L242.729 80.277C221.768 63.292 196.11 51.875 168 48.297V38.714H175.658C186.572 38.714 195.501 30.003 195.501 19.357C195.501 8.711 186.573 0 175.659 0H122.342C111.429 0 102.5 8.711 102.5 19.357C102.5 30.003 111.429 38.714 122.342 38.714H130V48.297C56.681 57.629 0 120.244 0 196.097C0 278.388 66.709 345.097 149 345.097C231.29 345.097 298 278.388 298 196.097C298 160.434 285.465 127.703 264.568 102.055ZM149 306.264C88.156 306.264 38.833 256.941 38.833 196.097C38.833 135.253 88.156 85.93 149 85.93C209.843 85.93 259.167 135.253 259.167 196.097C259.167 256.941 209.843 306.264 149 306.264Z" fill="#DEDEDE"/>
<path d="M149 69.048C79.136 69.048 22.5 125.684 22.5 195.548C22.5 265.412 79.136 322.048 149 322.048C218.864 322.048 275.5 265.412 275.5 195.548C275.5 125.685 218.864 69.048 149 69.048ZM149 306.264C88.156 306.264 38.833 256.941 38.833 196.097C38.833 135.253 88.156 85.93 149 85.93C209.843 85.93 259.167 135.253 259.167 196.097C259.167 256.941 209.843 306.264 149 306.264Z" fill="#D22856"/>
<path d="M144.299 234H84.2351V221.532L105.804 200.018C112.19 193.561 116.363 189.096 118.322 186.622C120.281 184.109 121.692 181.789 122.554 179.663C123.416 177.537 123.847 175.333 123.847 173.052C123.847 169.65 122.887 167.118 120.967 165.455C119.086 163.793 116.559 162.962 113.385 162.962C110.055 162.962 106.823 163.715 103.688 165.223C100.554 166.731 97.2822 168.877 93.8735 171.66L84 160.12C88.2315 156.563 91.7381 154.05 94.52 152.581C97.3018 151.112 100.338 149.991 103.629 149.218C106.921 148.406 110.604 148 114.678 148C120.046 148 124.787 148.967 128.901 150.9C133.015 152.833 136.208 155.539 138.48 159.018C140.753 162.498 141.889 166.48 141.889 170.964C141.889 174.869 141.184 178.542 139.773 181.982C138.402 185.385 136.247 188.883 133.309 192.479C130.409 196.074 125.277 201.197 117.911 207.846L106.862 218.111V218.922H144.299V234Z" fill="#D22856"/>
<path d="M215 216.429H204.656V234H186.908V216.429H150.235V203.961L187.907 149.218H204.656V202.511H215V216.429ZM186.908 202.511V188.129C186.908 185.733 187.006 182.253 187.201 177.691C187.397 173.129 187.554 170.481 187.672 169.746H187.201C185.752 172.917 184.008 176.009 181.971 179.025L166.22 202.511H186.908Z" fill="#D22856"/>
</svg>
